main/static/images/valider.svg

<svg enable-background="new 0 0 67.5 68.2" viewBox="0 0 67.5 68.2" xmlns="http://www.w3.org/2000/svg"><path d="m27.5 52.4c-.8 0-1.6-.3-2.1-.8l-11.5-10.9c-1.3-1.2-1.3-3.2-.1-4.4 1.2-1.3 3.2-1.3 4.4-.1l9.1 8.6 21.1-23.3c1.2-1.3 3.1-1.4 4.4-.2s1.4 3.1.2 4.4l-23.2 25.6c-.6.6-1.4 1-2.2 1 0 .1-.1.1-.1.1z" fill="#f8f8f8" stroke="#fafafa" stroke-miterlimit="10"/><path d="m64.4 68.2h-61.3c-1.7 0-3.1-1.4-3.1-3.1v-62c0-1.7 1.4-3.1 3.1-3.1h61.2c1.7 0 3.1 1.4 3.1 3.1v62c.1 1.7-1.3 3.1-3 3.1zm-58.2-6.2h55v-55.8h-55z" fill="none"/></svg>

<?xml version="1.0" encoding="utf-8"?>
<!-- Generator: Adobe Illustrator 22.1.0, SVG Export Plug-In . SVG Version: 6.00 Build 0)  -->
<svg version="1.1" id="Layer_1" xmlns="http://www.w3.org/2000/svg" xmlns:xlink="http://www.w3.org/1999/xlink" x="0px" y="0px"
	 viewBox="0 0 67.5 68.2" style="enable-background:new 0 0 67.5 68.2;" xml:space="preserve">
<style type="text/css">
	.st0{fill:#F8F8F8;stroke:#FAFAFA;stroke-miterlimit:10;}
	.st1{fill:none;}
</style>
<path class="st0" d="M27.5,52.4c-0.8,0-1.6-0.3-2.1-0.8L13.9,40.7c-1.3-1.2-1.3-3.2-0.1-4.4C15,35,17,35,18.2,36.2l9.1,8.6
	l21.1-23.3c1.2-1.3,3.1-1.4,4.4-0.2s1.4,3.1,0.2,4.4L29.8,51.3c-0.6,0.6-1.4,1-2.2,1C27.6,52.4,27.5,52.4,27.5,52.4z"/>
<path class="st1" d="M64.4,68.2H3.1c-1.7,0-3.1-1.4-3.1-3.1v-62C0,1.4,1.4,0,3.1,0h61.2c1.7,0,3.1,1.4,3.1,3.1v62
	C67.5,66.8,66.1,68.2,64.4,68.2z M6.2,62h55V6.2h-55C6.2,6.2,6.2,62,6.2,62z"/>
</svg>
